!!!!SEGMENT: pl-sa--l-1643--046_anonim--sanctimonialis-autem-femina.krn
!!!cenid: 16xx:1408
!!!COM: Anonim
!!!COM-rismID: pe30004985
!!!CDT:
!!!CNT:
!!!OTL: Sanctimonialis autem femina
!!!PDT:
!!!AGN: Sacred
!!!YEC: Copyright 2022 Narodowy Instytut Fryderyka Chopina (https://polishscores.org)
!!!YEM: License CC-BY-4.0 (https://creativecommons.org/licenses/by/4.0)
!!!SMS-siglum: PL-SA
!!!SMS-shelfmark: L 1643
!!!SMS-shelfwork: 046 W
!!!SMS-variant:
!!!SMS-altvar:
!!!NIFC-rismSourceID: 1001064743
!!!NIFC-rismChildID: 1001064743
!!!NIFC-islandoraID:
!!!URL-pdf-islandora:
!!!URL-scan:
!!!IIIF:
!!!ONB-nifc: UWAGA: 8 ksiąg. Primi chori: 1mus Cantus (82-83), C 2dus (82), C 3tius (79-80), Bassus (76-77); Secondi chori: Primus Cantus (76), C 2dus (79), Altus (77), Bassus (77-78). UWAGA: Nie dodawać pustych linii, chyba że w rękopisie pojawiają się dodatkowe oznaczenia dotyczące pełnej obsady (a 4, a 8 itp.)
!!!AIN: 8 empty
!!!key:
**kern	**text	**kern	**text	**kern	**text	**kern	**text	**kern	**text	**kern	**text	**kern	**text	**kern	**text
*part8	*	*part7	*	*part6	*	*part5	*	*part4	*	*part3	*	*part2	*	*part1	*
*staff8	*	*staff7	*	*staff6	*	*staff5	*	*staff4	*	*staff3	*	*staff2	*	*staff1	*
*Iempty	*	*Iempty	*	*Iempty	*	*Iempty	*	*Iempty	*	*Iempty	*	*Iempty	*	*Iempty	*
*I"Baſsus 2di Chori	*	*I"Altus secundi Chori.	*	*I"Cantus 2dus Secundi Chori.	*	*I"Primus Cantus 2di Chori	*	*I"Bassus Primi Chori.	*	*I"Cantus 3tius Primi Chori	*	*I"Cantus 2dus Primi Chori.	*	*I"1m(us) Cantus Primi Chori	*
*I'II Coro B	*	*I'II Coro A	*	*I'II Coro S 2	*	*I'II Coro S 1	*	*I'I Coro B	*	*I'I Coro S 3	*	*I'I Coro S 2	*	*I'I Coro S 1	*
*clefC3	*	*clefC2	*	*clefC1	*	*clefG2	*	*clefC3	*	*clefC2	*	*clefC1	*	*clefG2	*
*k[b-]	*	*k[b-]	*	*k[b-]	*	*k[b-]	*	*k[b-]	*	*k[b-]	*	*k[b-]	*	*k[b-]	*
*F:	*	*F:	*	*F:	*	*F:	*	*F:	*	*F:	*	*F:	*	*F:	*
*M2/2	*	*M2/2	*	*M2/2	*	*M2/2	*	*M2/2	*	*M2/2	*	*M2/2	*	*M2/2	*
*met(C|)	*	*met(C|)	*	*met(C|)	*	*met(C|)	*	*met(C|)	*	*met(C|)	*	*met(C|)	*	*met(C|)	*
=1-	=1-	=1-	=1-	=1-	=1-	=1-	=1-	=1-	=1-	=1-	=1-	=1-	=1-	=1-	=1-
!LO:TX:a:t=In Festo S. \nScholasticae \nVirginis A 8 V.	!	!LO:TX:a:t=In Festo S Scholasticae Virginis A 8 V.	!	!LO:TX:a:t=In Festo \nS. Schola\nsticae Virgi\nnis A 8 V	!	!LO:TX:a:t=In Festo \nS. Scholasticae \nVirginis A 8 V.	!	!LO:TX:a:t=In Festo S. Scho\nlasticae Virginis \nA 8 V.	!	!LO:TX:a:t=In Festo S. Schola&colon;\nsticae Virginis A 8 V	!	!LO:TX:a:t=In Festo S. Scholasticae Virginis A 8 V.	!	!LO:TX:a:t=In Festo \nS. Schola\nsticae Virginis A 8	!
2.f\	San-	2.f\	San-	1a	San-	1cc	San-	2.f\	San-	2.a\	San-	2.a\	San-	1cc	San-
4g\	-cti-	4c/	-cti-	.	.	.	.	4e\	-cti-	4g\	.	4b-\	.	.	.
*	*	*	*	*	*	*	*	*	*	*	*	*	*	*lig	*
2f\	-mo-	1.f	-mo-	2.a\	-cti-	2cc\	.	2.f\	-mo-	2.f\	-cti-	1cc	-cti-	1cc	-cti-
2F/	-ni-	.	.	.	.	2.ff\	-cti-	.	.	.	.	.	.	.	.
.	.	.	.	4g/	.	.	.	4e\	-ni-	4g\	.	.	.	.	.
=2-	=2-	=2-	=2-	=2-	=2-	=2-	=2-	=2-	=2-	=2-	=2-	=2-	=2-	=2-	=2-
*	*	*	*	*	*	*	*	*	*	*	*	*	*	*col	*
2.f\	-a-	.	.	1f	-mo-	.	.	2.d\	-a-	1a	.	2.dd\	-mo-	2.ff\	.
.	.	.	.	.	.	4ee\	.	.	.	.	.	.	.	.	.
.	.	2f\	-ni-	.	.	4dd\	.	.	.	.	.	.	.	.	.
*	*	*	*	*	*	*	*	*	*	*	*	*	*	*Xlig	*
4c/	-lis	.	.	.	.	4cc\	.	4c/	-lis	.	.	4ee\	.	4ee\	.
*	*	*	*	*	*	*	*	*	*	*	*	*	*	*Xcol	*
2f\	au-	1f	-a-	2.b-\	.	2.dd\	-mo-	1B-	au-	1.b-	-mo-	2.ff\	.	4dd\	.
.	.	.	.	.	.	.	.	.	.	.	.	.	.	4cc\	.
!LO:TX:t=P:global:problem=oddech jako rozdzielacz słów	!	!	!	!	!	!	!	!	!	!	!	!	!	!	!
2B-,</	-tem	.	.	.	.	.	.	.	.	.	.	.	.	1dd\	-mo-
*	*	*	*	*	*	*custos:ff	*	*	*	*	*	*	*	*	*
.	.	.	.	4cc\	.	4ee\	.	.	.	.	.	4ee\	-ni-	.	.
!	!	!	!	!	!	!LO:LB:g=original	!	!	!	!	!	!	!	!	!
=3-	=3-	=3-	=3-	=3-	=3-	=3-	=3-	=3-	=3-	=3-	=3-	=3-	=3-	=3-	=3-
!	!LO:MO:mod=fe-	!	!	!	!	!	!	!LO:TX:t=P:global:problem=oddech jako rozdzielacz słów	!	!	!	!	!	!	!
2f\	fae-	2c/	-lis	2dd\	.	2ff\	.	2B-,</	-tem	.	.	2dd\	-a-	.	.
2c/	-mi-	1g\	au-	2g/	-ni-	4ee\	.	2c/	San-	2g\	-ni-	2cc\	-lis	4ee\	-ni-
.	.	.	.	.	.	4dd\	.	.	.	.	.	.	.	4ff\	.
*	*	*	*	*	*	*	*	*lig	*	*	*	*	*	*	*
4c/	-na	.	.	1.cc	-a-	1.cc	.	1d	-cti-	1g	-a-	2.cc\	au-	4gg\	-a-
4B-/	.	.	.	.	.	.	.	.	.	.	.	.	.	4ff\	.
4A/	.	2c/	.	.	.	.	.	.	.	.	.	.	.	4gg\	-lis
!	!	!	!	!	!	!	!	!	!	!	!	!	!	!LO:TX:t=P:global:problem=oddech jako rozdzielacz słów	!
4G,</	.	.	.	.	.	.	.	.	.	.	.	4b-\	.	4ee,<\	.
=4-	=4-	=4-	=4-	=4-	=4-	=4-	=4-	=4-	=4-	=4-	=4-	=4-	=4-	=4-	=4-
*	*	*	*	*	*	*	*	*col	*	*	*	*	*	*	*
2F/	San-	2c/	-tem	.	.	.	.	2.g\	.	2a\	-lis	4a\	.	2.aa\	au-
.	.	.	.	.	.	.	.	.	.	.	.	4b-\	.	.	.
!	!	!	!LO:MO:mod=fe-	!	!	!	!	!	!	!	!	!	!	!	!
2F/	-cti-	2.f\	fae-	2a\	-lis	2cc\	-ni-	.	.	2f\	au-	2cc\	.	.	.
*	*	*	*	*	*	*	*	*Xlig	*	*	*	*	*	*	*
.	.	.	.	.	.	.	.	4e\	.	.	.	.	.	4gg\	.
*	*	*	*	*	*	*	*	*Xcol	*	*	*	*	*	*	*
2.B-/	-mo-	.	.	2b-\	au-	2.dd\	-a-	4d\	.	1f	-tem	2.b-\	-tem	4ff\	.
.	.	4e/	.	.	.	.	.	4c/	.	.	.	.	.	4ee\	.
.	.	4d/	.	4g/	-tem	.	.	2d\	-mo-	.	.	.	.	4ff\	.
4A/	-ni-	4e/	.	4a\	.	4cc\	.	.	.	.	.	4cc\	.	4ee\	.
=5-	=5-	=5-	=5-	=5-	=5-	=5-	=5-	=5-	=5-	=5-	=5-	=5-	=5-	=5-	=5-
!	!	!	!	!	!LO:MO:mod=fe-	!	!	!	!	!	!LO:MO:mod=fe-	!	!	!	!
2G/	-a-	4f\	.	2b-\	fae-	2b-/	-lis	2d\	-ni-	2g\	fae-	4dd\	.	4dd\	.
.	.	4g\	.	.	.	.	.	.	.	.	.	4g/	.	4ee\	.
!	!	!	!	!	!	!	!	!	!	!	!	!	!LO:MO:mod=fe-	!	!
2F/	-lis	2a\	.	2a\	-mi-	2cc\	au-	4A/	-a-	2a\	-mi-	1cc\	fae-	2.ff\	.
.	.	.	.	.	.	.	.	4B-/	-lis	.	.	.	.	.	.
!	!	!	!	!LO:TX:t=P:global:problem=oddech jako rozdzielacz słów	!	!	!	!	!	!LO:TX:t=P:global:problem=oddech jako rozdzielacz słów	!	!	!	!	!
1c	au-	2e/	.	2g,</	-na	0cc	-tem	1c	au-	1g,<	-na	.	.	.	.
.	.	.	.	.	.	.	.	.	.	.	.	.	.	8ee\L	.
*	*	*	*	*	*	*	*	*	*	*	*	*	*	*custos:ee	*
.	.	.	.	.	.	.	.	.	.	.	.	.	.	8dd\J	.
*	*	*	*	*	*	*	*	*	*	*	*	*custos:a	*	*	*
!	!	!	!	!	!	!	!	!	!	!	!	!	!	!LO:LB:g=original	!
.	.	2g\	-mi-	1cc\	San-	.	.	.	.	.	.	2g/	-mi-	2ee\	.
!	!	!	!	!	!	!	!	!	!	!	!	!LO:LB:g=original	!	!	!
=6-	=6-	=6-	=6-	=6-	=6-	=6-	=6-	=6-	=6-	=6-	=6-	=6-	=6-	=6-	=6-
*custos:B-	*	*	*	*	*	*	*	*custos:B-	*	*	*	*	*	*	*
!	!	!LO:TX:t=P:global:problem=oddech jako rozdzielacz słów	!	!	!	!	!	!	!	!	!	!	!	!	!
1F	-tem	2c,</	-na	.	.	.	.	1f	-tem	0f	San-	2a\	-na	1ff	-tem
*	*	*custos:f	*	*	*	*	*	*	*	*	*	*	*	*	*
.	.	2f\	San-	2a\	-cti-	.	.	.	.	.	.	2cc\	San-	.	.
*	*	*	*	*custos:g	*	*	*	*	*	*	*	*	*	*	*
!LO:PB:g=original	!	!LO:LB:g=original	!	!	!	!	!	!LO:PB:g=original	!	!	!	!	!	!	!
!	!LO:MO:mod=fe-	!	!	!	!	!	!LO:MO:mod=fe-	!	!LO:MO:mod=fe-	!	!	!	!	!	!
2.B-/	fae-	1.f	-cti-	2b-\	-mo-	4dd\	fae-	4B-/	fae-	.	.	4.f/	-cti-	4dd\	fe-
.	.	.	.	.	.	4cc\	.	4c/	.	.	.	.	.	4ee\	.
.	.	.	.	.	.	.	.	.	.	.	.	8g/	.	.	.
!	!	!	!	!LO:LB:g=original	!	!	!	!	!	!	!	!	!	!	!
.	.	.	.	2g/	-ni-	4a/	.	4d\	.	.	.	4.a\	-mo-	4ff\	.
8A/L	.	.	.	.	.	4b-/	.	4e\	.	.	.	.	.	4gg\	.
8G/J	.	.	.	.	.	.	.	.	.	.	.	8b-\	-ni-	.	.
=7-	=7-	=7-	=7-	=7-	=7-	=7-	=7-	=7-	=7-	=7-	=7-	=7-	=7-	=7-	=7-
4F/	.	.	.	2cc\	-a-	2.cc\	.	2.f\	.	2f\	-cti-	2cc\	-a-	2.aa\	.
4G/	.	.	.	.	.	.	.	.	.	.	.	.	.	.	.
*	*	*	*	*	*	*	*	*	*	*custos:a	*	*	*	*	*
4A/	.	2c/	-mo-	4b-\	.	.	.	.	.	2b-\	.	2f/	-lis	.	.
4B-/	.	.	.	4a\	.	4cc\	.	8e\L	.	.	.	.	.	8gg\L	.
.	.	.	.	.	.	.	.	8d\J	.	.	.	.	.	8ff\J	.
!	!	!	!	!	!	!	!	!	!	!LO:LB:g=original	!	!	!	!	!
!	!	!	!	!	!	!	!	!	!	!LO:SIC:v:s=2.g	!	!	!	!	!
2.c/	.	2c/	-ni-	2g/	-lis	4ee\	.	4c/	.	2.a\	-mo-	4.g/	au-	4ee\	.
.	.	.	.	.	.	4dd\	.	4d\	.	.	.	.	.	4ff\	.
.	.	.	.	.	.	.	.	.	.	.	.	8a\	.	.	.
.	.	1g\	-a-	2cc\	au-	4ee\	.	4e\	.	.	.	4.b-\	.	4gg\	.
8B-/L	.	.	.	.	.	4cc\	.	4f\	.	8g\L	-ni-	.	.	8ff\L	.
8A/J	.	.	.	.	.	.	.	.	.	8f\J	.	8cc\	.	8ee\J	.
=8-	=8-	=8-	=8-	=8-	=8-	=8-	=8-	=8-	=8-	=8-	=8-	=8-	=8-	=8-	=8-
*	*	*	*	*lig	*	*	*	*	*	*	*	*	*	*	*
4G/	.	.	.	1b-	-tem	2gg\	.	2.g\	.	4e/	-a-	2dd\	.	4dd\	.
4A/	.	.	.	.	.	.	.	.	.	4f\	-lis	.	.	4cc\	.
4B-/	.	2d/	-lis	.	.	4ff\	.	.	.	2g\	au-	2g/	-tem	4dd\	.
4c/	.	.	.	.	.	4ee\	.	8f\L	.	.	.	.	.	4ee\	.
.	.	.	.	.	.	.	.	8e\J	.	.	.	.	.	.	.
!	!	!	!	!	!	!	!	!	!	!	!	!	!LO:MO:mod=fe-	!	!
4d\	.	2d/	au-	1a	.	4dd\	.	1d	.	1f	-tem	4cc\	fa-	4ff\	.
4c/	.	.	.	.	.	4ee\	.	.	.	.	.	4a\	.	4ee\	.
4B-/	.	2g\	-tem	.	.	4ff\	.	.	.	.	.	4b-\	.	4dd\	.
*	*	*	*	*	*	*custos:dd	*	*	*	*	*	*	*	*	*
4A/	.	.	.	.	.	4ee\	.	.	.	.	.	4cc\	.	4cc\	.
*	*	*	*	*Xlig	*	*	*	*	*	*	*	*	*	*	*
!	!	!	!	!	!	!LO:LB:g=original	!	!	!	!	!	!	!	!	!
=9-	=9-	=9-	=9-	=9-	=9-	=9-	=9-	=9-	=9-	=9-	=9-	=9-	=9-	=9-	=9-
!	!	!	!LO:MO:mod=fe-	!	!	!	!	!	!	!	!LO:MO:mod=fe-	!	!	!	!
2G/	.	2.g\	fae-	2b-\	fe-	2dd\	.	2g\	.	2g\	fae-	4b-\	.	4dd\	.
.	.	.	.	.	.	.	.	.	.	.	.	4a\	.	4cc\	.
2c/	-mi-	.	.	2cc\	-mi-	2cc\	-mi-	2c/	-mi-	2g\	-mi-	2g/	-mi-	4dd\	.
.	.	4c/	-mi-	.	.	.	.	.	.	.	.	.	.	4ee\	-mi-
!	!	!	!	!	!	!LO:TX:t=P:global:problem=oddech jako rozdzielacz słów	!	!	!	!	!	!	!	!	!
2F,</	-na	2c,</	-na	2cc,<\	-na	2cc,\	-na	2f\	-na	2f\	-na	2a\	-na	2ff\	-na
1B-/	cum	2.f\	cum	1b-\	cum	1dd\	cum	2r	.	2r	.	2r	.	2r	.
=10-	=10-	=10-	=10-	=10-	=10-	=10-	=10-	=10-	=10-	=10-	=10-	=10-	=10-	=10-	=10-
.	.	.	.	.	.	.	.	00r	.	00r	.	00r	.	00r	.
.	.	4g\	.	.	.	.	.	.	.	.	.	.	.	.	.
2F/	ne-	2a\	ne-	2a\	ne-	2cc\	ne-	.	.	.	.	.	.	.	.
4G/	-gan-	1g	-gan-	2g/	-gan-	2b-/	-gan-	.	.	.	.	.	.	.	.
4A/	.	.	.	.	.	.	.	.	.	.	.	.	.	.	.
4B-/	.	.	.	2b-\	-tis	1dd\	-tis	.	.	.	.	.	.	.	.
4c/	.	.	.	.	.	.	.	.	.	.	.	.	.	.	.
=11-	=11-	=11-	=11-	=11-	=11-	=11-	=11-	=11-	=11-	=11-	=11-	=11-	=11-	=11-	=11-
*custos:e-	*	*	*	*	*	*	*	*	*	*	*	*	*	*	*
!	!	!LO:TX:b:t=P:problem=# below	!	!	!	!	!	!	!	!	!	!	!	!	!
2d\	-tis	2f#X,<\	-tis	2a\	.	.	.	.	.	.	.	.	.	.	.
!LO:LB:g=original	!	!	!	!	!	!	!	!	!	!	!	!	!	!	!
2e-X\	Ver-	2g\	ver-	2b-\	ver-	2b-/	ver-	.	.	.	.	.	.	.	.
2e-\	-ba	2g\	-ba	4g/	-ba	2cc\	-ba	.	.	.	.	.	.	.	.
.	.	.	.	4a\	.	.	.	.	.	.	.	.	.	.	.
!	!	!LO:TX:b:t=P:problem=# below	!	!	!	!	!	!	!	!	!	!	!	!	!
2d\	au-	2f#X\	au-	2.b-\	au-	2dd\	au-	.	.	.	.	.	.	.	.
=12-	=12-	=12-	=12-	=12-	=12-	=12-	=12-	=12-	=12-	=12-	=12-	=12-	=12-	=12-	=12-
1c	-diſ-	1g	-diſ-	.	.	1ee-X	-diſ-	1r	.	1r	.	1r	.	1r	.
.	.	.	.	8a\L	.	.	.	.	.	.	.	.	.	.	.
.	.	.	.	8g\J	.	.	.	.	.	.	.	.	.	.	.
.	.	.	.	2a\	-dis-	.	.	.	.	.	.	.	.	.	.
2B-/	-set	2d/	-set	2b-\	-set	2dd\	-set	2r	.	2r	.	2r	.	2r	.
*	*	*custos:b-	*	*	*	*	*	*	*	*	*	*custos:cc	*	*	*
2r	.	2r	.	2r	.	2r	.	1f\	cum	1a\	cum	1cc\	cum	1ff\	Cum
!	!	!LO:LB:g=original	!	!LO:LB:g=original	!	!	!	!	!	!	!	!LO:LB:g=original	!	!	!
=13-	=13-	=13-	=13-	=13-	=13-	=13-	=13-	=13-	=13-	=13-	=13-	=13-	=13-	=13-	=13-
00r	.	00r	.	00r	.	00r	.	.	.	.	.	.	.	.	.
*	*	*	*	*	*	*	*	*	*	*	*	*	*	*custos:dd	*
.	.	.	.	.	.	.	.	2c/	ne-	2g\	ne-	2cc\	ne-	2ee\	ne-
!	!	!	!	!	!	!	!	!	!	!	!	!	!	!LO:LB:g=original	!
.	.	.	.	.	.	.	.	1d	-gan-	2.f\	-gan-	2.a\	-gan-	1dd	-gan-
.	.	.	.	.	.	.	.	.	.	4g\	.	4b-\	.	.	.
=14-	=14-	=14-	=14-	=14-	=14-	=14-	=14-	=14-	=14-	=14-	=14-	=14-	=14-	=14-	=14-
.	.	.	.	.	.	.	.	2A/	-tis	2a\	-tis	2cc\	-tis	2ee\	-tis
.	.	.	.	.	.	.	.	2B-/	ver-	2d/	ver-	2dd\	ver-	2ff\	ver-
*	*	*	*	*	*	*	*	*custos:d	*	*	*	*	*	*	*
.	.	.	.	.	.	.	.	2e-X\	-ba	4g\	-ba	2ee-X\	-ba	2gg\	-ba
.	.	.	.	.	.	.	.	.	.	4a\	.	.	.	.	.
!	!	!	!	!	!	!	!	!LO:LB:g=original	!	!	!	!	!	!	!
.	.	.	.	.	.	.	.	2d\	au-	2.b-\	au-	2b-\	au-	2ff\	au-
=15-	=15-	=15-	=15-	=15-	=15-	=15-	=15-	=15-	=15-	=15-	=15-	=15-	=15-	=15-	=15-
1r	.	1r	.	1r	.	1r	.	1c	-diſ-	.	.	1cc	-diſ-	1ee-X	-diſ-
.	.	.	.	.	.	.	.	.	.	8a\L	.	.	.	.	.
.	.	.	.	.	.	.	.	.	.	8g\J	.	.	.	.	.
.	.	.	.	.	.	.	.	.	.	2a\	-diſ-	.	.	.	.
2r	.	2r	.	2r	.	2r	.	2B-/	-ſet	2b-\	-set	2dd\	-set	2dd\	-set
2B-/	Ver-	2b-\	Ver-	2dd\	Ver-	2ff\	ver-	2r	.	2r	.	2r	.	2r	.
!	!	!	!	!	!	!	!	!	!	!LO:PB:g=original	!	!	!	!	!
=16-	=16-	=16-	=16-	=16-	=16-	=16-	=16-	=16-	=16-	=16-	=16-	=16-	=16-	=16-	=16-
2e-X\	ba	4g\	ba	4b-\	ba	2ee-X\	-ba	00r	.	00r	.	00r	.	0r	.
.	.	4a\	.	4cc\	.	.	.	.	.	.	.	.	.	.	.
2B-/	au-	4b-\	au-	2dd\	au-	2dd\	au-	.	.	.	.	.	.	.	.
.	.	4g\	.	.	.	.	.	.	.	.	.	.	.	.	.
1c	-diſ-	1cc	-dis-	1ee-X	-dis-	1cc	-diſ-	.	.	.	.	.	.	.	.
=17-	=17-	=17-	=17-	=17-	=17-	=17-	=17-	=17-	=17-	=17-	=17-	=17-	=17-	=17-	=17-
2G/	-set	2b-\	-set	2dd\	-set	2dd\	-set	.	.	.	.	.	.	2r	.
2r	.	2r	.	2r	.	2r	.	.	.	.	.	.	.	2cc\	o-
0r	.	0r	.	0r	.	0r	.	.	.	.	.	.	.	2cc\	-ra-
.	.	.	.	.	.	.	.	.	.	.	.	.	.	2cc\	-ti-
=18-	=18-	=18-	=18-	=18-	=18-	=18-	=18-	=18-	=18-	=18-	=18-	=18-	=18-	=18-	=18-
.	.	.	.	.	.	.	.	0r	.	0r	.	0r	.	2b-/	-o-
.	.	.	.	.	.	.	.	.	.	.	.	.	.	2cc\	-nem
1r	.	1r	.	1r	.	1r	.	.	.	.	.	.	.	1dd	fu-
=19-	=19-	=19-	=19-	=19-	=19-	=19-	=19-	=19-	=19-	=19-	=19-	=19-	=19-	=19-	=19-
2r	.	2r	.	2r	.	2r	.	2r	.	2r	.	2r	.	2cc\	-dit
*	*	*	*	*	*	*custos:cc	*	*	*	*	*	*	*	*	*
2f\	O-	2fny\	o-	2a\	o-	2cc\	o-	2F/	o-	2a\	o-	2cc\	o-	2r	.
!	!	!	!	!	!	!LO:LB:g=original	!	!	!	!	!	!	!	!	!
2f\	-ra-	2f\	-ra-	2a\	-ra-	2cc\	-ra-	2F/	-ra-	2a\	-ra-	2cc\	-ra-	0r	.
2f\	-ti-	2f\	-ti-	2a\	-ti-	2cc\	-ti-	2F/	-ti-	2a\	-ti-	2a\	-ti-	.	.
=20-	=20-	=20-	=20-	=20-	=20-	=20-	=20-	=20-	=20-	=20-	=20-	=20-	=20-	=20-	=20-
2B-/	-o-	2d/	-o-	2b-\	-o-	2b-/	-o-	2B-/	-o-	2b-\	-o-	2dd\	-o-	.	.
2F/	-nem	2f\	-nem	2a\	-nem	2cc\	-nem	2f\	-nem	2f\	-nem	2cc\	-nem	.	.
4B-/	fu-	1f	fu-	1b-	fu-	1dd	fu-	1B-	fu-	1f	fu-	1b-	fu-	1r	.
4c/	.	.	.	.	.	.	.	.	.	.	.	.	.	.	.
4d\	.	.	.	.	.	.	.	.	.	.	.	.	.	.	.
4eny\	.	.	.	.	.	.	.	.	.	.	.	.	.	.	.
=21-	=21-	=21-	=21-	=21-	=21-	=21-	=21-	=21-	=21-	=21-	=21-	=21-	=21-	=21-	=21-
*custos:c	*	*	*	*	*	*	*	*	*	*	*	*	*	*	*
2f\	-dit	2f\	-dit	2a\	-dit	2cc\	-dit	2F/	-dit	2f\	-dit	2cc\	-dit	2r	.
!LO:LB:g=original	!	!	!	!	!	!	!	!	!	!	!	!	!	!	!
2r	.	2r	.	2r	.	2r	.	2r	.	2r	.	2r	.	2eeny\	o-
0r	.	0r	.	0r	.	0r	.	0r	.	0r	.	1r	.	2ee\	-ra-
*	*	*	*	*	*	*	*	*	*	*	*	*	*	*custos:dd	*
.	.	.	.	.	.	.	.	.	.	.	.	.	.	2ee\	-ti-
!	!	!	!	!	!	!	!	!	!	!	!	!	!	!LO:LB:g=original	!
=22-	=22-	=22-	=22-	=22-	=22-	=22-	=22-	=22-	=22-	=22-	=22-	=22-	=22-	=22-	=22-
.	.	.	.	.	.	.	.	.	.	.	.	0r	.	2dd\	-o-
.	.	.	.	.	.	.	.	.	.	.	.	.	.	2ee\	-nem
1r	.	1r	.	1r	.	1r	.	1r	.	1r	.	.	.	1ff	fu-
=23-	=23-	=23-	=23-	=23-	=23-	=23-	=23-	=23-	=23-	=23-	=23-	=23-	=23-	=23-	=23-
2r	.	2r	.	2r	.	2r	.	2r	.	2r	.	2r	.	2ee\	-dit
2c/	o-	2g\	o-	2cc\	o-	2eeny\	o-	2c/	o-	2g\	o-	2cc\	o-	2r	.
*	*	*	*	*	*	*	*	*	*	*	*	*custos:cc	*	*	*
2c/	-ra-	2g\	-ra-	2cc\	-ra-	2ee\	-ra-	2c/	-ra-	2g\	-ra-	2cc\	-ra-	0r	.
!	!	!	!	!	!	!	!	!	!	!	!	!LO:LB:g=original	!	!	!
2c/	-ti-	2e/	-ti-	2cc\	-ti-	2ee\	-ti-	2c/	-ti-	2g\	-ti-	2cc\	-ti-	.	.
=24-	=24-	=24-	=24-	=24-	=24-	=24-	=24-	=24-	=24-	=24-	=24-	=24-	=24-	=24-	=24-
2G/	-o-	2g\	-o-	2b-\	-o-	2dd\	-o-	2g\	-o-	2a\	-o-	2dd\	-o-	.	.
2c/	-nem	2g\	-nem	2cc\	-nem	2ee\	-nem	2c/	-nem	2g\	-nem	2cc\	-nem	.	.
*	*	*custos:g	*	*custos:cc	*	*	*	*	*	*	*	*	*	*	*
4F/	fu-	1f	fu-	1cc	fu-	1ff	fu-	1f	fu-	1a	fu-	1cc	fu-	1r	.
4G/	.	.	.	.	.	.	.	.	.	.	.	.	.	.	.
4A/	.	.	.	.	.	.	.	.	.	.	.	.	.	.	.
4B-/	.	.	.	.	.	.	.	.	.	.	.	.	.	.	.
!	!	!LO:LB:g=original	!	!LO:LB:g=original	!	!	!	!	!	!	!	!	!	!	!
=25-	=25-	=25-	=25-	=25-	=25-	=25-	=25-	=25-	=25-	=25-	=25-	=25-	=25-	=25-	=25
2c/	-dit	2g\	-dit	2cc\	-dit	2ee\	-dit	2c/	-dit	2g\	-dit	2cc\	-dit	2r	.
2r	.	2r	.	2r	.	2r	.	2r	.	2r	.	2r	.	2ff\	o-
0r	.	0r	.	0r	.	0r	.	00r	.	00r	.	0r	.	2ff\	-ra-
.	.	.	.	.	.	.	.	.	.	.	.	.	.	2ff\	-ti-
=26-	=26-	=26-	=26-	=26-	=26-	=26-	=26-	=26-	=26-	=26-	=26-	=26-	=26-	=26-	=26-
.	.	.	.	.	.	.	.	.	.	.	.	.	.	2gg\	-o-
.	.	.	.	.	.	.	.	.	.	.	.	.	.	2ff\	-nem
1r	.	1r	.	1r	.	1r	.	.	.	.	.	00r	.	1ff	fu-
=27-	=27-	=27-	=27-	=27-	=27-	=27-	=27-	=27-	=27-	=27-	=27-	=27-	=27-	=27-	=27-
2r	.	2r	.	2r	.	2r	.	.	.	.	.	.	.	2ff\	-dit
2f\	o-	2a\	o-	2cc\	o-	2ff\	o-	.	.	.	.	.	.	2r	.
2d\	-ra-	2a\	-ra-	2dd\	-ra-	2ff\	-ra-	00r	.	00r	.	.	.	0r	.
2B-/	-ti-	2b-\	-ti-	2dd\	-ti-	2ff\	-ti-	.	.	.	.	.	.	.	.
=28-	=28-	=28-	=28-	=28-	=28-	=28-	=28-	=28-	=28-	=28-	=28-	=28-	=28-	=28-	=28-
2e-X\	-o-	2b-\	-o-	2ee-X\	-o-	2gg\	-o-	.	.	.	.	.	.	.	.
2B-/	-nem	2.b-\	-nem-	2dd\	-nem	2ff\	-nem	.	.	.	.	.	.	.	.
4f\	fu-	.	.	1cc	fu-	1ff	fu-	.	.	.	.	00r	.	1r	.
4eny\	.	8a\L	.	.	.	.	.	.	.	.	.	.	.	.	.
.	.	8g\J	.	.	.	.	.	.	.	.	.	.	.	.	.
4d\	.	2a\	-fu-	.	.	.	.	.	.	.	.	.	.	.	.
4c/	.	.	.	.	.	.	.	.	.	.	.	.	.	.	.
=29-	=29-	=29-	=29-	=29-	=29-	=29-	=29-	=29-	=29-	=29-	=29-	=29-	=29-	=29-	=29-
2B-/	-dit	2b-\	-dit	2dd\	-dit	2ff\	-dit	.	.	.	.	.	.	2r	.
2r	.	2r	.	2r	.	2r	.	.	.	.	.	.	.	2dd\	et
0r	.	0r	.	0r	.	0r	.	0r	.	0r	.	.	.	2dd\	in-
.	.	.	.	.	.	.	.	.	.	.	.	.	.	2dd\	-un-
=30-	=30-	=30-	=30-	=30-	=30-	=30-	=30-	=30-	=30-	=30-	=30-	=30-	=30-	=30-	=30-
.	.	.	.	.	.	.	.	.	.	.	.	.	.	2cc\	-da-
.	.	.	.	.	.	.	.	.	.	.	.	.	.	4cc\	-ti-
*	*	*	*	*	*	*	*	*	*	*	*	*	*	*custos:b-	*
.	.	.	.	.	.	.	.	.	.	.	.	.	.	4cc\	-o
*	*	*	*	*	*	*custos:ff	*	*custos:f	*	*	*	*	*	*	*
!	!	!	!	!	!	!	!	!	!	!	!	!	!	!LO:LB:g=original	!
1r	.	1r	.	1r	.	1r	.	1r	.	1r	.	1r	.	2.b-/	plu-
.	.	.	.	.	.	.	.	.	.	.	.	.	.	4b-/	-ui-
!	!	!	!	!	!	!LO:LB:g=original	!	!LO:LB:g=original	!	!	!	!	!	!	!
=31-	=31-	=31-	=31-	=31-	=31-	=31-	=31-	=31-	=31-	=31-	=31-	=31-	=31-	=31-	=31-
2r	.	2r	.	2r	.	2r	.	2r	.	2r	.	2r	.	2a/	-ae
*custos:B-	*	*	*	*	*	*	*	*	*	*	*	*	*	*	*
2F/	e-	2f\	e-	2cc\	e-	2ff\	e-	2f\	e-	2a\	e-	2cc\	e-	2r	.
!LO:LB:g=original	!	!	!	!	!	!	!	!	!	!	!	!	!	!	!
2B-/	-ru-	2d/	-ru-	2b-\	-ru-	2ff\	-ru-	2B-/	-ru-	2b-\	-ru-	2dd\	-ru-	1r	.
2F/	-pit	2f\	-pit	2cc\	-pit	2ff\	-pit	2f\	-pit	2a\	-pit	2cc\	-pit	.	.
2ryy	.	2r	.	2ryy	.	2r	.	2ryy	.	2ryy	.	2ryy	.	2ryy	.
=32-	=32-	=32-	=32-	=32-	=32-	=32-	=32-	=32-	=32-	=32-	=32-	=32-	=32-	=32-	=32-
*	*	*	*	*	*	*	*	*	*	*custos:f	*	*	*	*	*
00r	.	00r	.	00r	.	00r	.	00r	.	00r	.	00r	.	1ff	et
.	.	.	.	.	.	.	.	.	.	.	.	.	.	2ff\	in-
.	.	.	.	.	.	.	.	.	.	.	.	.	.	2ff\	-un-
=33-	=33-	=33-	=33-	=33-	=33-	=33-	=33-	=33-	=33-	=33-	=33-	=33-	=33-	=33-	=33-
.	.	.	.	.	.	.	.	.	.	.	.	.	.	2ee-X\	-da-
.	.	.	.	.	.	.	.	.	.	.	.	.	.	4ee-\	-ti-
.	.	.	.	.	.	.	.	.	.	.	.	.	.	4ee-\	-o
.	.	.	.	.	.	.	.	.	.	.	.	.	.	2.dd\	plu-
.	.	.	.	.	.	.	.	.	.	.	.	.	.	4dd\	-ui-
!	!	!	!	!	!	!	!	!	!	!LO:LB:g=original	!	!	!	!	!
=34-	=34-	=34-	=34-	=34-	=34-	=34-	=34-	=34-	=34-	=34-	=34-	=34-	=34-	=34-	=34-
2r	.	2r	.	2r	.	2r	.	2r	.	2r	.	2r	.	2cc\	-ae
2B-/	e-	2f\	e-	2b-\	e-	2dd\	e-	2B-/	e-	2f\	e-	2dd\	e-	2r	.
2e-X\	-ru-	2g\	-ru-	2b-\	-ru-	2ee-X\	-ru-	2E-X/	-ru-	2g\	-ru-	4b-\	-ru-	2r	.
.	.	.	.	.	.	.	.	.	.	.	.	4cc\	.	.	.
2B-/	-pit	2f\	-pit	2b-\	-pit	2dd\	-pit	4B-/	-pit	4f\	-pit	4dd\	-pit	2ff\	e-
.	.	.	.	.	.	.	.	4B-/	e-	4b-\	e-	4dd\	e-	.	.
=35-	=35-	=35-	=35-	=35-	=35-	=35-	=35-	=35-	=35-	=35-	=35-	=35-	=35-	=35-	=35-
2r	.	2r	.	2r	.	2r	.	2e-X\	-ru-	4g\	.	2ee-X\	-ru-	2gg\	-ru-
.	.	.	.	.	.	.	.	.	.	4a\	-ru-	.	.	.	.
2c/	e-	2g\	e-	2cc\	e-	2ee-X\	e-	2B-/	-pit	2b-\	-pit	2dd\	-pit	2ff\	-pit
2G/	-ru-	2g\	-ru-	2b-\	-ru-	2dd\	-ru-	2r	.	2r	.	2r	.	2r	.
*	*	*custos:f#	*	*	*	*	*	*	*	*	*	*	*	*	*
!	!	!LO:TX:b:t=P:problem=# below	!	!	!	!	!	!	!	!	!	!	!	!	!
2d\	-pit	2f#X\	-pit	2a\	-pit	2dd\	-pit	2d\	e-	2a\	e-	2dd\	e-	2ff\	e-
!	!	!LO:LB:g=original	!	!	!	!	!	!	!	!	!	!	!	!	!
=36-	=36-	=36-	=36-	=36-	=36-	=36-	=36-	=36-	=36-	=36-	=36-	=36-	=36-	=36-	=36-
*	*	*	*	*custos:a	*	*	*	*	*	*	*	*	*	*	*
!	!	!	!	!	!	!	!	!	!	!	!	!LO:TX:b:t=P:problem=# below	!	!	!
2r	.	2r	.	2r	.	2r	.	2A/	-ru-	2a\	-ru-	2cc#X\	-ru-	2eeny\	-ru-
*	*	*	*	*	*	*	*	*	*	*	*	*custos:dd	*	*custos:gg	*
!	!	!LO:TX:b:t=P:problem=# below	!	!LO:LB:g=original	!	!	!	!	!	!	!	!	!	!	!
2d\	e-	2f#X\	e-	4a\	e-	2dd\	e-	2d\	-pit	2a\	-pit	2dd\	-pit	2dd\	-pit
.	.	.	.	4b-\	.	.	.	.	.	.	.	.	.	.	.
!	!	!	!	!	!	!	!	!	!	!	!	!LO:LB:g=original	!	!LO:PB:g=original	!
2c\	-ru-	2g\	-ru-	2cc\	-ru-	2ee-X\	-ru-	2r	.	2r	.	2r	.	2r	.
2G/	-pit	2g\	-pit	2dd\	-pit	2dd\	-pit	2G/	e-	2b-\	e-	2dd\	e-	2gg\	e-
=37-	=37-	=37-	=37-	=37-	=37-	=37-	=37-	=37-	=37-	=37-	=37-	=37-	=37-	=37-	=37-
!	!	!	!	!	!	!	!	!	!	!	!	!	!	!LO:TX:b:t=P:problem=# below	!
2r	.	2r	.	2r	.	2r	.	2d\	-ru-	2a\	-ru-	2dd\	-ru-	2ff#X\	-ru-
2G/	e-	2g\	e-	2b-\	e-	2dd\	e-	2G/	-pit	2b-\	-pit	2dd\	-pit	2gg\	-pit
2c/	-ru-	2g\	-ru-	2cc\	-ru-	2cc\	-ru-	2r	.	2r	.	2r	.	2r	.
4F,</	-pit	4fny,<\	-pit	4cc,<\	-pit	4cc\	-pit	2f\	e-	2a\	e-	2ccny\	e-	2ffny\	e-
*	*	*	*	*	*	*	*ij	*	*	*	*	*	*	*	*
4F/	e-	4c/	e-	4a\	e-	4cc\	e-	.	.	.	.	.	.	.	.
=38-	=38-	=38-	=38-	=38-	=38-	=38-	=38-	=38-	=38-	=38-	=38-	=38-	=38-	=38-	=38-
2c/	-ru-	2c/	-ru-	2g/	-ru-	2cc\	-ru-	2c/	-ru-	2g\	-ru-	2cc\	-ru-	2ee\	-ru-
*	*	*	*	*	*	*	*	*custos:f	*	*	*	*	*	*	*
2F/	-pit	2c/	-pit	2a\	-pit	2cc\	-pit	2f\	-pit	2a\	-pit	2cc\	-pit	2ff\	-pit
*	*	*	*	*	*	*	*Xij	*	*	*	*	*	*	*	*
!	!	!	!	!	!	!	!	!LO:LB:g=original	!	!	!	!	!	!	!
1r	.	1r	.	1r	.	1r	.	1r	.	1r	.	1r	.	1r	.
=39-	=39-	=39-	=39-	=39-	=39-	=39-	=39-	=39-	=39-	=39-	=39-	=39-	=39-	=39-	=39-
1F	e-	1f	e-	1cc	e-	2cc\	e-	4f\	e-	2a\	e-	1a	e-	2ff\	e-
.	.	.	.	.	.	.	.	4eny\	.	.	.	.	.	.	.
.	.	.	.	.	.	4dd\	.	4d\	.	2f\	-ru-	.	.	4ff\	-ru-
.	.	.	.	.	.	4eeny\	.	4c/	.	.	.	.	.	4ee\	.
0B-	-ru-	0f	-ru-	0b-	-ru-	4ff\	.	0B-	-ru-	1d	-pit	1.b-	-ru-	4dd\	.
.	.	.	.	.	.	4ee\	.	.	.	.	.	.	.	4cc\	.
.	.	.	.	.	.	4dd\	.	.	.	.	.	.	.	4b-/	.
.	.	.	.	.	.	4cc\	.	.	.	.	.	.	.	4cc\	.
=40-	=40-	=40-	=40-	=40-	=40-	=40-	=40-	=40-	=40-	=40-	=40-	=40-	=40-	=40-	=40-
.	.	.	.	.	.	1b-	-ru-	.	.	2d/	e-	.	.	1dd	.
.	.	.	.	.	.	.	.	.	.	2f\	-ru-	2f/	.	.	.
1F;;l	-pit	1f;;l	-pit	1a;;l	-pit	1cc;;l	-pit	1f;;l	-pit	1f;;l	-pit	1cc;;l	-pit	1cc;l	-pit
==	==	==	==	==	==	==	==	==	==	==	==	==	==	==	==
*-	*-	*-	*-	*-	*-	*-	*-	*-	*-	*-	*-	*-	*-	*-	*-
!!!system-decoration: [s1,s2,s3,s4][s5,s6,s7,s8]
!!!RDF**kern: < = below
!!!RDF**kern: l = terminal long
!!!ENC: Anastazja Marusiak
!!!END: 2021-10-14
!!!ENC: Marta Lawrence
!!!END: 2021-10-20
